X: 39033
T: Swan, The
R: hornpipe
M: 4/4
K: Gmajor
|:D2|G2 BG DGBd|g2 fg (3efg dB|c2 ec B2 dB|ADFA dcBA|
G2 BG DGBd|g2 fg (3efg dB|c2 ec B2 dB|1 ADFA GDEF:|2 ADFA G2 ef||
|:gdBg e2 ce|edBG ADFA|GBdB ceag|(3fga ea d2 ef|
gdBg e2 ce|edBG ADFA|GBdB ceag|(3fed (3cBA G2:|

